core/assets/icons/installment.outline.svg

<svg width="24" height="24" viewBox="0 0 24 24" xmlns="http://www.w3.org/2000/svg"><g id="installment=outline"><path id="Vector" d="M20.0033 4.88905V17.9776C20.0034 18.0638 19.9784 18.1483 19.9314 18.2206C19.8843 18.2929 19.8173 18.3499 19.7384 18.3848L12.0014 21.8087L4.26436 18.3857C4.18517 18.3507 4.11791 18.2934 4.07085 18.2207C4.02378 18.1481 3.99895 18.0633 3.9994 17.9767V4.88905H2.22119V3.11084H21.7815V4.88905H20.0033ZM5.77761 4.88905V17.1098L12.0014 19.866L18.2251 17.1098V4.88905H5.77761ZM8.44493 8.44548H15.5578V10.2237H8.44493V8.44548ZM8.44493 12.0019H15.5578V13.7801H8.44493V12.0019Z"/></g></svg>

<svg xmlns="http://www.w3.org/2000/svg" width="24" height="24" fill="none"><path fill="#191C22" d="M20.003 4.89v13.088a.445.445 0 0 1-.265.407l-7.737 3.424-7.737-3.423a.444.444 0 0 1-.265-.41V4.89H2.221V3.111h19.56v1.778h-1.778Zm-14.225 0v12.22L12 19.866l6.224-2.756V4.89H5.778Zm2.667 3.555h7.113v1.779H8.445V8.445Zm0 3.557h7.113v1.778H8.445v-1.778Z"/></svg>
